images/aside-cost-info-4.svg

<svg width="24" height="24" viewBox="0 0 24 24" fill="none" xmlns="http://www.w3.org/2000/svg">
<path d="M1.5 10C4.33333 9.33335 9.2 8.9 8 12.5C6.5 17 7 16 8 18C8.8 19.6 8.33333 21.3333 8 22M5 4C6.5 3.66667 10 3.4 12 5C14.5 7 14 10 21 6.00001M23 12C23 18.0751 18.0751 23 12 23C5.92487 23 1 18.0751 1 12C1 5.92487 5.92487 1 12 1C18.0751 1 23 5.92487 23 12ZM14.3272 12.299C17.8272 11.799 19 11.5 18 14C17.0715 16.3212 14.3272 20.9657 12.3272 16.299C11.8272 15.1324 11.5272 12.699 14.3272 12.299Z" stroke="white" stroke-width="1.5" stroke-linecap="round"/>
</svg>

<svg width="24" height="24" fill="none" xmlns="http://www.w3.org/2000/svg"><path d="M1.5 10c2.833-.667 7.7-1.1 6.5 2.5C6.5 17 7 16 8 18c.8 1.6.333 3.333 0 4M5 4c1.5-.333 5-.6 7 1 2.5 2 2 5 9 1m2 6c0 6.075-4.925 11-11 11S1 18.075 1 12 5.925 1 12 1s11 4.925 11 11zm-8.673.299C17.827 11.799 19 11.5 18 14c-.928 2.321-3.673 6.966-5.673 2.299-.5-1.167-.8-3.6 2-4z" stroke="#fff" stroke-width="1.5" stroke-linecap="round"/></svg>
